X:115
T:Otxa.
T:John Malchair's Third Collection of Tunes
%%VWML:Malchair-3619-p115
F:https://www.vwml.org/record/Malchair/3619/p115
F:www.vwml.org/topics/historic-dance-and-tune-books/Malchair
Z:Eric Conrad Feb 2020
M:3/8
L:1/16
K:G
[Bg][Bg]/[Bg]/ [Bg][Bg]/[Bg]/ [Bg][Bg]/[Bg]/ | [Bg][Bg]/[Bg]/ [Bg][Bg] [Af][Af] | \
[DBg]2[DBg]2[DBg]2 | [DBg] defge | dg gf fe | ed d3B |
G[Bg]/[Bg]/ [Bg][Bg]/[Bg]/ [Bg][Bg]/[Bg]/ | [DBg]3 ggg | \
{b}a3 fga | bbbagf | (ag)(fg)(fg) | {f}e3 efg |
(d/e/d/e/) (f/g/f/g/) {b}a2 | z defge | dg gf fe | ed d3B | \
!segno!G[Bg]/[Bg]/ [Bg][Bg]/[Bg]/ [Bg][Bg]/[Bg]/ | [Bg][Bg]/[Bg]/ [Bg][Bg] [Af][Af] |
([DBg]2[DBg]2[DBg]2) | g3 ggg & [DB]2 x4 | {b}a3 fga | bbbagf | agfgfg | \
{f}e3 efg | (d/e/d/e/) (f/g/f/g/) {b}a2 |
z defge | (dg)(gf)(fe) | ed d3B | "^D.C. al"!segno!G2 


